; generated by PrusaSlicer 2.3.0+win64 on 2021-02-20 at 10:22:01 UTC


;
;

;
;
; 

; external perimeters extrusion width = 0.40mm
; perimeters extrusion width = 0.40mm
; infill extrusion width = 0.45mm
; solid infill extrusion width = 0.45mm
; top infill extrusion width = 0.40mm
; first layer extrusion width = 0.42mm

M73 P0 R54
M201 X1250 Y1250 Z400 E5000 ; sets maximum accelerations, mm/sec^2
M203 X180 Y180 Z12 E80 ; sets maximum feedrates, mm/sec
M204 P1250 R1250 T1250 ; sets acceleration (P, T) and retract acceleration (R), mm/sec^2
M205 X8.00 Y8.00 Z2.00 E10.00 ; sets the jerk limits, mm/sec
M205 S0 T0 ; sets the minimum extruding and travel feed rate, mm/sec
M107
;TYPE:Custom
G90 ; use absolute coordinates
M83 ; extruder relative mode
M104 S170 ; set extruder temp for bed leveling
M140 S60 ; set bed temp
M109 R170 ; wait for bed leveling temp
M190 S60 ; wait for bed temp
G28 ; home all without mesh bed level
G29 ; mesh bed leveling 
M104 S215 ; set extruder temp
G92 E0.0
G1 Y-2.0 X179 F2400
G1 Z3 F720
M109 S215 ; wait for extruder temp

; intro line
G1 X170 F1000
G1 Z0.2 F720
G1 X110.0 E8.0 F900
G1 X40.0 E10.0 F700
G92 E0.0

M221 S95 ; set flow
G21 ; set units to millimeters
G90 ; use absolute coordinates
M83 ; use relative distances for extrusion
M900 K0.2 ; Filament gcode LA 1.5
; ; Filament gcode LA 1.0
;LAYER_CHANGE
;Z:0.2
;HEIGHT:0.2
;BEFORE_LAYER_CHANGE
G92 E0.0
;0.2


G1 Z0.200 F9000.000
;AFTER_LAYER_CHANGE
;0.2
G1 E-3.20000 F4200.000
G1 Z0.400 F9000.000
G1 X85.298 Y69.461
G1 Z0.200
G1 E3.20000 F2400.000
M204 S800
;TYPE:Skirt
;WIDTH:0.42
G1 F1200.000
G1 X85.922 Y69.131 E0.02213
G1 X86.619 Y68.999 E0.02225
G1 X97.712 Y68.997 E0.34781
G1 X98.241 Y69.058 E0.01668
G1 X98.743 Y69.234 E0.01669
G1 X99.190 Y69.515 E0.01657
G1 X99.566 Y69.892 E0.01668
G1 X106.998 Y79.366 E0.37756
G1 X109.120 Y83.294 E0.13996
G1 X109.302 Y83.774 E0.01609
G1 X109.378 Y84.281 E0.01609
G1 X109.379 Y90.037 E0.18047
G1 X109.296 Y90.643 E0.01917
G1 X109.059 Y91.211 E0.01929
G1 X108.609 Y91.770 E0.02249
G1 X86.308 Y112.132 E0.94686
G1 X85.900 Y112.431 E0.01585
G1 X85.358 Y112.661 E0.01846
G1 X84.772 Y112.750 E0.01858
G1 X73.667 Y112.751 E0.34821
G1 X73.049 Y112.670 E0.01953
G1 X72.474 Y112.430 E0.01953
G1 X70.011 Y110.248 E0.10317
M73 P0 R53
G1 X69.685 Y109.832 E0.01657
G1 X69.461 Y109.358 E0.01645
G1 X69.332 Y108.634 E0.02308
G1 X69.332 Y103.298 E0.16730
G1 X73.032 Y87.633 E0.50469
G1 X73.287 Y86.999 E0.02142
G1 X84.747 Y70.031 E0.64200
G1 X85.256 Y69.504 E0.02296
M204 S1250
; printing object Dino.stl id:0 copy 0
G1 E-2.24000 F4200.000
;WIPE_START
G1 F7200.000
G1 X85.922 Y69.131 E-0.42289
G1 X86.619 Y68.999 E-0.39325
G1 X86.792 Y68.999 E-0.09586
;WIPE_END
G1 E-0.04800 F4200.000
G1 Z0.400 F9000.000
G1 X89.622 Y76.538
G1 Z0.200
G1 E3.20000 F2400.000
M204 S800
;TYPE:Perimeter
G1 F1200.000
G1 X90.897 Y76.538 E0.03996
G1 X90.897 Y78.216 E0.05262
G1 X95.105 Y78.216 E0.13194
G1 X95.105 Y76.538 E0.05262
G1 X96.544 Y76.538 E0.04512
G1 X96.544 Y78.216 E0.05262
G1 X98.318 Y78.216 E0.05563
G1 X98.318 Y80.038 E0.05712
G1 X102.044 Y80.038 E0.11682
G1 X102.044 Y81.909 E0.05867
G1 X103.898 Y81.909 E0.05813
G1 X103.898 Y85.210 E0.10349
G1 X102.553 Y85.210 E0.04218
G1 X102.553 Y83.210 E0.06271
G1 X96.544 Y83.210 E0.18840
G1 X96.544 Y85.210 E0.06271
G1 X94.544 Y85.210 E0.06271
G1 X94.544 Y86.956 E0.05475
G1 X92.644 Y86.956 E0.05957
G1 X92.644 Y88.910 E0.06126
G1 X90.944 Y88.910 E0.05330
G1 X90.944 Y90.710 E0.05644
G1 X89.044 Y90.710 E0.05957
G1 X89.044 Y92.410 E0.05330
G1 X87.156 Y92.410 E0.05920
G1 X87.156 Y94.210 E0.05644
G1 X85.344 Y94.210 E0.05681
G1 X85.344 Y107.402 E0.41361
G1 X83.544 Y107.402 E0.05644
G1 X83.544 Y109.210 E0.05670
G1 X82.072 Y109.210 E0.04614
G1 X82.072 Y105.510 E0.11601
G1 X78.044 Y105.510 E0.12631
G1 X78.044 Y109.210 E0.11601
G1 X74.831 Y109.210 E0.10075
G1 X74.831 Y107.419 E0.05614
G1 X72.872 Y107.420 E0.06141
G1 X72.872 Y104.538 E0.09034
G1 X80.372 Y104.538 E0.23516
G1 X80.372 Y89.538 E0.47031
G1 X82.098 Y89.538 E0.05410
G1 X82.098 Y85.589 E0.12384
G1 X83.872 Y85.589 E0.05564
G1 X83.872 Y83.805 E0.05592
G1 X85.872 Y83.805 E0.06271
G1 X85.872 Y82.038 E0.05540
G1 X87.671 Y82.038 E0.05639
G1 X87.671 Y80.038 E0.06271
G1 X89.622 Y80.038 E0.06119
G1 X89.622 Y76.598 E0.10786
M204 S1250
G1 E-2.24000 F4200.000
;WIPE_START
G1 F7200.000
G1 X90.897 Y76.538 E-0.70710
G1 X90.897 Y76.908 E-0.20490
;WIPE_END
G1 E-0.04800 F4200.000
G1 Z0.400 F9000.000
G1 X104.372 Y85.538
G1 Z0.200
G1 E3.20000 F2400.000
M204 S800
G1 F1200.000
G1 X105.838 Y85.538 E0.04596
G1 X105.838 Y86.996 E0.04569
G1 X104.372 Y86.996 E0.04596
G1 X104.372 Y85.598 E0.04381
M204 S1250
G1 E-2.24000 F4200.000
;WIPE_START
G1 F7200.000
G1 X105.838 Y85.538 E-0.81299
G1 X105.838 Y85.717 E-0.09901
;WIPE_END
G1 E-0.04800 F4200.000
G1 Z0.400 F9000.000
G1 X81.695 Y105.887
M73 P1 R53
G1 Z0.200
G1 E3.20000 F2400.000
M204 S800
G1 F1200.000
G1 X81.695 Y109.361 E0.10893
G1 X78.421 Y109.361 E0.10266
G1 X78.421 Y105.887 E0.10893
G1 X81.635 Y105.887 E0.10078
M204 S1250
G1 X81.318 Y106.264 F9000.000
M204 S800
;TYPE:External perimeter
G1 F1200.000
G1 X81.318 Y108.984 E0.08528
G1 X78.798 Y108.984 E0.07901
G1 X78.798 Y106.264 E0.08528
G1 X81.258 Y106.264 E0.07713
M204 S1250
G1 X81.703 Y106.156 F9000.000
G1 E-2.24000 F4200.000
;WIPE_START
G1 F7200.000
G1 X81.295 Y107.909 E-0.91200
;WIPE_END
G1 E-0.04800 F4200.000
G1 Z0.400 F9000.000
G1 X79.995 Y104.161
G1 Z0.200
G1 E3.20000 F2400.000
M204 S800
;TYPE:Perimeter
G1 F1200.000
G1 X79.995 Y100.587 E0.11207
G1 X74.495 Y100.587 E0.17245
G1 X74.495 Y100.161 E0.01335
G1 X79.995 Y100.161 E0.17245
G1 X79.995 Y91.190 E0.28129
G1 X76.129 Y91.190 E0.12123
G1 X76.129 Y88.980 E0.06928
G1 X76.421 Y88.980 E0.00916
G1 X76.421 Y90.876 E0.05944
G1 X79.995 Y90.876 E0.11207
G1 X79.995 Y89.161 E0.05376
G1 X81.721 Y89.161 E0.05410
G1 X81.721 Y85.212 E0.12384
G1 X83.495 Y85.212 E0.05564
G1 X83.495 Y83.428 E0.05592
G1 X85.495 Y83.428 E0.06271
G1 X85.495 Y81.661 E0.05540
G1 X87.294 Y81.661 E0.05639
G1 X87.294 Y79.661 E0.06271
G1 X89.245 Y79.661 E0.06119
G1 X89.245 Y72.587 E0.22181
G1 X87.495 Y72.587 E0.05487
G1 X87.495 Y72.161 E0.01335
G1 X89.421 Y72.161 E0.06038
G1 X89.421 Y76.161 E0.12542
G1 X91.274 Y76.161 E0.05810
G1 X91.274 Y77.839 E0.05262
G1 X94.728 Y77.839 E0.10829
G1 X94.728 Y76.161 E0.05262
G1 X96.612 Y76.161 E0.05906
G1 X96.612 Y72.587 E0.11207
G1 X94.728 Y72.587 E0.05906
G1 X94.728 Y72.161 E0.01335
G1 X96.921 Y72.161 E0.06877
G1 X96.921 Y77.839 E0.17803
G1 X98.696 Y77.839 E0.05563
G1 X98.696 Y79.661 E0.05712
G1 X102.421 Y79.661 E0.11682
G1 X102.421 Y81.532 E0.05867
G1 X104.275 Y81.532 E0.05813
G1 X104.275 Y85.161 E0.11378
G1 X106.215 Y85.161 E0.06083
G1 X106.215 Y89.231 E0.12760
G1 X105.995 Y89.231 E0.00690
G1 X105.995 Y87.373 E0.05826
G1 X103.995 Y87.373 E0.06271
G1 X103.995 Y85.587 E0.05599
G1 X102.176 Y85.587 E0.05705
G1 X102.176 Y83.587 E0.06271
G1 X96.921 Y83.587 E0.16476
G1 X96.921 Y85.587 E0.06271
G1 X94.921 Y85.587 E0.06271
G1 X94.921 Y87.333 E0.05475
G1 X93.021 Y87.333 E0.05957
G1 X93.021 Y89.287 E0.06126
G1 X91.321 Y89.287 E0.05330
G1 X91.321 Y91.087 E0.05644
G1 X89.421 Y91.087 E0.05957
G1 X89.421 Y92.787 E0.05330
G1 X87.533 Y92.787 E0.05920
G1 X87.533 Y94.587 E0.05644
G1 X85.721 Y94.587 E0.05681
G1 X85.721 Y107.779 E0.41361
G1 X83.921 Y107.779 E0.05644
G1 X83.921 Y109.587 E0.05670
G1 X74.454 Y109.587 E0.29684
G1 X74.454 Y107.797 E0.05614
G1 X72.495 Y107.797 E0.06141
G1 X72.495 Y104.161 E0.11399
G1 X79.935 Y104.161 E0.23328
M204 S1250
G1 X79.618 Y103.784 F9000.000
M204 S800
;TYPE:External perimeter
G1 F1200.000
G1 X79.618 Y100.964 E0.08842
G1 X74.118 Y100.964 E0.17245
G1 X74.118 Y99.784 E0.03700
G1 X79.618 Y99.784 E0.17245
G1 X79.618 Y91.567 E0.25764
G1 X75.752 Y91.567 E0.12123
G1 X75.752 Y88.603 E0.09293
G1 X76.798 Y88.603 E0.03281
G1 X76.798 Y90.499 E0.05944
G1 X79.618 Y90.499 E0.08842
G1 X79.618 Y88.784 E0.05376
G1 X81.344 Y88.784 E0.05410
G1 X81.344 Y84.835 E0.12384
G1 X83.118 Y84.835 E0.05564
G1 X83.118 Y83.051 E0.05592
G1 X85.118 Y83.051 E0.06271
G1 X85.118 Y81.284 E0.05540
G1 X86.917 Y81.284 E0.05639
G1 X86.917 Y79.284 E0.06271
G1 X88.868 Y79.284 E0.06119
G1 X88.868 Y72.964 E0.19816
G1 X87.118 Y72.964 E0.05487
G1 X87.118 Y71.784 E0.03700
G1 X89.798 Y71.784 E0.08403
G1 X89.798 Y75.784 E0.12542
G1 X91.651 Y75.784 E0.05810
G1 X91.651 Y77.462 E0.05262
G1 X94.351 Y77.462 E0.08465
G1 X94.351 Y75.784 E0.05262
G1 X96.235 Y75.784 E0.05906
G1 X96.235 Y72.964 E0.08842
G1 X94.351 Y72.964 E0.05906
G1 X94.351 Y71.784 E0.03700
G1 X97.298 Y71.784 E0.09241
G1 X97.298 Y77.462 E0.17803
G1 X99.073 Y77.462 E0.05563
G1 X99.073 Y79.284 E0.05712
G1 X102.798 Y79.284 E0.11682
G1 X102.798 Y81.155 E0.05867
G1 X104.652 Y81.155 E0.05813
G1 X104.652 Y84.784 E0.11378
G1 X106.592 Y84.784 E0.06083
G1 X106.592 Y89.608 E0.15125
G1 X105.618 Y89.608 E0.03054
G1 X105.618 Y87.750 E0.05826
G1 X103.618 Y87.750 E0.06271
G1 X103.618 Y85.964 E0.05599
G1 X101.799 Y85.964 E0.05705
G1 X101.799 Y83.964 E0.06271
G1 X97.298 Y83.964 E0.14111
G1 X97.298 Y85.964 E0.06271
G1 X95.298 Y85.964 E0.06271
G1 X95.298 Y87.710 E0.05475
G1 X93.398 Y87.710 E0.05957
G1 X93.398 Y89.664 E0.06126
G1 X91.698 Y89.664 E0.05330
G1 X91.698 Y91.464 E0.05644
G1 X89.798 Y91.464 E0.05957
G1 X89.798 Y93.164 E0.05330
G1 X87.910 Y93.164 E0.05920
G1 X87.910 Y94.964 E0.05644
G1 X86.098 Y94.964 E0.05681
G1 X86.098 Y108.156 E0.41361
G1 X84.298 Y108.156 E0.05644
G1 X84.298 Y109.964 E0.05670
G1 X74.077 Y109.964 E0.32049
G1 X74.077 Y108.174 E0.05614
G1 X72.118 Y108.174 E0.06141
G1 X72.118 Y103.784 E0.13763
G1 X79.558 Y103.784 E0.23328
M204 S1250
G1 X80.012 Y103.714 F9000.000
G1 E-2.24000 F4200.000
;WIPE_START
G1 F7200.000
G1 X79.593 Y102.139 E-0.91200
;WIPE_END
G1 E-0.04800 F4200.000
G1 Z0.400 F9000.000
G1 X90.784 Y77.259
G1 Z0.200
G1 E3.20000 F2400.000
M204 S800
;TYPE:Solid infill
;WIDTH:0.421228
G1 F1200.000
G1 X90.346 Y76.821 E0.01949
G1 X89.905 Y76.821 E0.01386
G1 X89.905 Y76.916 E0.00297
G1 X90.784 Y77.794 E0.03909
M204 S1250
G1 E-2.24000 F4200.000
;WIPE_START
G1 F7200.000
G1 X89.905 Y76.916 E-0.68862
G1 X89.905 Y76.821 E-0.05238
G1 X90.214 Y76.821 E-0.17100
;WIPE_END
G1 E-0.04800 F4200.000
G1 Z0.400 F9000.000
G1 X96.061 Y76.651
G1 Z0.200
G1 E3.20000 F2400.000
M204 S800
G1 F1200.000
G1 X96.261 Y76.852 E0.00891
G1 X96.261 Y77.387 E0.01683
G1 X95.696 Y76.821 E0.02516
G1 X95.388 Y76.821 E0.00969
G1 X95.388 Y77.048 E0.00714
G1 X96.431 Y78.091 E0.04641
M204 S1250
G1 X97.739 Y78.330 F9000.000
M204 S800
G1 F1200.000
G1 X98.036 Y78.626 E0.01318
G1 X98.036 Y79.161 E0.01683
G1 X97.374 Y78.499 E0.02944
G1 X96.839 Y78.499 E0.01683
G1 X98.205 Y79.866 E0.06079
M204 S1250
G1 E-2.24000 F4200.000
;WIPE_START
G1 F7200.000
G1 X97.042 Y78.702 E-0.91200
;WIPE_END
G1 E-0.04800 F4200.000
G1 Z0.400 F9000.000
G1 X101.166 Y80.151
G1 Z0.200
G1 E3.20000 F2400.000
M204 S800
G1 F1200.000
G1 X101.761 Y80.747 E0.02648
G1 X101.761 Y81.282 E0.01683
G1 X100.631 Y80.151 E0.05028
M204 S1250
G1 E-2.24000 F4200.000
;WIPE_START
G1 F7200.000
G1 X101.761 Y81.282 E-0.88575
G1 X101.761 Y81.234 E-0.02625
;WIPE_END
G1 E-0.04800 F4200.000
G1 Z0.400 F9000.000
G1 X103.037 Y82.023
G1 Z0.200
G1 E3.20000 F2400.000
M204 S800
G1 F1200.000
G1 X103.615 Y82.601 E0.02571
G1 X103.615 Y83.136 E0.01683
G1 X102.502 Y82.023 E0.04951
M204 S1250
G1 E-2.24000 F4200.000
;WIPE_START
G1 F7200.000
G1 X103.615 Y83.136 E-0.87228
G1 X103.615 Y83.064 E-0.03972
;WIPE_END
G1 E-0.04800 F4200.000
G1 Z0.400 F9000.000
G1 X103.785 Y83.840
G1 Z0.200
G1 E3.20000 F2400.000
M204 S800
G1 F1200.000
G1 X102.137 Y82.192 E0.07331
G1 X101.761 Y82.192 E0.01182
G1 X101.761 Y81.817 E0.01182
G1 X100.266 Y80.321 E0.06653
G1 X99.731 Y80.321 E0.01683
G1 X102.337 Y82.927 E0.11594
G1 X102.836 Y82.927 E0.01569
G1 X102.836 Y83.426 E0.01569
G1 X103.785 Y84.375 E0.04223
M204 S1250
G1 X102.666 Y83.791 F9000.000
M204 S800
G1 F1200.000
G1 X103.615 Y84.741 E0.04223
G1 X103.615 Y84.927 E0.00587
G1 X103.267 Y84.927 E0.01096
G1 X102.666 Y84.326 E0.02673
M204 S1250
G1 X101.972 Y83.097 F9000.000
M204 S800
G1 F1200.000
G1 X99.196 Y80.321 E0.12348
G1 X98.661 Y80.321 E0.01683
G1 X101.267 Y82.927 E0.11594
G1 X100.732 Y82.927 E0.01683
G1 X95.388 Y77.583 E0.23774
G1 X95.388 Y78.118 E0.01683
G1 X100.197 Y82.927 E0.21394
G1 X99.662 Y82.927 E0.01683
G1 X95.234 Y78.499 E0.19698
G1 X94.699 Y78.499 E0.01683
G1 X99.127 Y82.927 E0.19698
G1 X98.592 Y82.927 E0.01683
G1 X94.164 Y78.499 E0.19698
G1 X93.629 Y78.499 E0.01683
G1 X98.057 Y82.927 E0.19698
G1 X97.522 Y82.927 E0.01683
G1 X93.094 Y78.499 E0.19698
G1 X92.559 Y78.499 E0.01683
G1 X96.987 Y82.927 E0.19698
G1 X96.452 Y82.927 E0.01683
G1 X92.024 Y78.499 E0.19698
G1 X91.489 Y78.499 E0.01683
G1 X96.261 Y83.272 E0.21231
G1 X96.261 Y83.807 E0.01683
G1 X90.954 Y78.499 E0.23611
G1 X90.614 Y78.499 E0.01068
G1 X90.614 Y78.160 E0.01068
G1 X89.905 Y77.451 E0.03154
G1 X89.905 Y77.986 E0.01683
G1 X96.261 Y84.342 E0.28276
G1 X96.261 Y84.877 E0.01683
G1 X89.905 Y78.521 E0.28276
M73 P2 R53
G1 X89.905 Y79.056 E0.01683
G1 X95.777 Y84.927 E0.26120
G1 X95.242 Y84.927 E0.01683
G1 X89.905 Y79.591 E0.23740
G1 X89.905 Y80.126 E0.01683
G1 X94.707 Y84.927 E0.21360
G1 X94.261 Y84.927 E0.01401
G1 X94.261 Y85.017 E0.00282
G1 X89.566 Y80.321 E0.20889
G1 X89.031 Y80.321 E0.01683
G1 X94.261 Y85.552 E0.23269
G1 X94.261 Y86.087 E0.01683
G1 X88.496 Y80.321 E0.25649
G1 X87.961 Y80.321 E0.01683
G1 X94.261 Y86.622 E0.28029
G1 X94.261 Y86.673 E0.00162
G1 X93.778 Y86.673 E0.01520
G1 X87.954 Y80.849 E0.25909
G1 X87.954 Y81.384 E0.01683
G1 X93.243 Y86.673 E0.23529
G1 X92.708 Y86.673 E0.01683
G1 X87.954 Y81.919 E0.21149
G1 X87.954 Y82.321 E0.01264
G1 X87.821 Y82.321 E0.00419
G1 X92.361 Y86.862 E0.20200
G1 X92.361 Y87.397 E0.01683
G1 X87.286 Y82.321 E0.22580
G1 X86.751 Y82.321 E0.01683
G1 X92.361 Y87.932 E0.24960
G1 X92.361 Y88.467 E0.01683
G1 X86.216 Y82.321 E0.27340
G1 X86.155 Y82.321 E0.00190
G1 X86.155 Y82.796 E0.01493
G1 X91.987 Y88.627 E0.25942
G1 X91.452 Y88.627 E0.01683
G1 X86.155 Y83.331 E0.23562
G1 X86.155 Y83.866 E0.01683
G1 X90.917 Y88.627 E0.21182
G1 X90.661 Y88.627 E0.00803
G1 X90.661 Y88.907 E0.00880
G1 X85.842 Y84.088 E0.21437
G1 X85.307 Y84.088 E0.01683
G1 X90.661 Y89.442 E0.23817
G1 X90.661 Y89.977 E0.01683
G1 X84.772 Y84.088 E0.26197
G1 X84.237 Y84.088 E0.01683
G1 X90.577 Y90.427 E0.28200
G1 X90.042 Y90.427 E0.01683
G1 X84.155 Y84.541 E0.26186
G1 X84.155 Y85.076 E0.01683
G1 X89.507 Y90.427 E0.23806
G1 X88.972 Y90.427 E0.01683
G1 X84.155 Y85.611 E0.21426
G1 X84.155 Y85.871 E0.00820
G1 X83.881 Y85.871 E0.00863
G1 X88.761 Y90.752 E0.21711
G1 X88.761 Y91.287 E0.01683
G1 X83.346 Y85.871 E0.24091
G1 X82.811 Y85.871 E0.01683
G1 X88.761 Y91.822 E0.26472
G1 X88.761 Y92.127 E0.00960
G1 X88.532 Y92.127 E0.00723
G1 X82.381 Y85.976 E0.27363
G1 X82.381 Y86.511 E0.01683
G1 X87.997 Y92.127 E0.24983
G1 X87.462 Y92.127 E0.01683
G1 X82.381 Y87.046 E0.22602
G1 X82.381 Y87.581 E0.01683
G1 X86.927 Y92.127 E0.20222
G1 X86.873 Y92.127 E0.00168
G1 X86.873 Y92.609 E0.01515
G1 X82.381 Y88.116 E0.19985
G1 X82.381 Y88.651 E0.01683
G1 X86.873 Y93.144 E0.19985
G1 X86.873 Y93.679 E0.01683
G1 X82.381 Y89.186 E0.19985
G1 X82.381 Y89.721 E0.01683
G1 X86.587 Y93.927 E0.18710
G1 X86.051 Y93.927 E0.01683
G1 X81.945 Y89.821 E0.18266
G1 X81.410 Y89.821 E0.01683
G1 X85.516 Y93.927 E0.18266
G1 X85.061 Y93.927 E0.01432
G1 X85.061 Y94.007 E0.00251
G1 X80.875 Y89.821 E0.18622
G1 X80.655 Y89.821 E0.00692
G1 X80.655 Y90.136 E0.00990
G1 X85.061 Y94.542 E0.19601
G1 X85.061 Y95.077 E0.01683
G1 X80.655 Y90.671 E0.19601
M73 P2 R52
G1 X80.655 Y91.206 E0.01683
G1 X85.061 Y95.612 E0.19601
G1 X85.061 Y96.147 E0.01683
G1 X80.655 Y91.741 E0.19601
G1 X80.655 Y92.276 E0.01683
G1 X85.061 Y96.682 E0.19601
G1 X85.061 Y97.217 E0.01683
G1 X80.655 Y92.811 E0.19601
G1 X80.655 Y93.346 E0.01683
G1 X85.061 Y97.752 E0.19601
G1 X85.061 Y98.287 E0.01683
G1 X80.655 Y93.881 E0.19601
G1 X80.655 Y94.416 E0.01683
G1 X85.061 Y98.822 E0.19601
G1 X85.061 Y99.357 E0.01683
G1 X80.655 Y94.951 E0.19601
G1 X80.655 Y95.486 E0.01683
G1 X85.061 Y99.892 E0.19601
G1 X85.061 Y100.427 E0.01683
G1 X80.655 Y96.021 E0.19601
G1 X80.655 Y96.556 E0.01683
G1 X85.061 Y100.962 E0.19601
